profile/img/card-community.svg

<svg xmlns="http://www.w3.org/2000/svg" fill="none" viewBox="0 0 120 120"><defs><linearGradient id="a" x1="0" x2="120" y1="0" y2="120" gradientUnits="userSpaceOnUse"><stop offset="0%" stop-color="#23c88a" stop-opacity=".12"/><stop offset="100%" stop-color="#50df8e" stop-opacity=".06"/></linearGradient><linearGradient id="b" x1="0" x2="120" y1="0" y2="120" gradientUnits="userSpaceOnUse"><stop offset="0%" stop-color="#50df8e"/><stop offset="100%" stop-color="#23c88a"/></linearGradient></defs><rect width="120" height="120" fill="url(#a)" rx="20"/><path stroke="#7feca2" stroke-width="1.5" d="m36 52 24-16m24 16L60 36" opacity=".35"/><path stroke="#7feca2" d="M36 52h48" opacity=".2"/><circle cx="60" cy="32" r="9" fill="url(#b)" opacity=".85"/><circle cx="60" cy="27" r="4" fill="#fff" opacity=".35"/><path fill="#fff" d="M52 37q0-5 8-5t8 5" opacity=".2"/><circle cx="36" cy="58" r="8" fill="#23c88a" opacity=".65"/><circle cx="36" cy="53" r="3.5" fill="#fff" opacity=".3"/><path fill="#fff" d="M29 63q0-5 7-5t7 5" opacity=".18"/><circle cx="84" cy="58" r="8" fill="#50df8e" opacity=".65"/><circle cx="84" cy="53" r="3.5" fill="#fff" opacity=".3"/><path fill="#fff" d="M77 63q0-5 7-5t7 5" opacity=".18"/><path fill="url(#b)" d="M54 86c0-6 6-8 6-3 0-5 6-3 6 3s-6 11-6 11-6-5-6-11" opacity=".55"/><path stroke="#7feca2" stroke-linecap="round" stroke-linejoin="round" stroke-width="2" d="m44 82-6 8 6 8m32-16 6 8-6 8" opacity=".4"/><circle cx="18" cy="22" r="2" fill="#50df8e" opacity=".3"/><circle cx="102" cy="20" r="1.5" fill="#7feca2" opacity=".3"/><circle cx="14" cy="102" r="1.5" fill="#5ae39c" opacity=".2"/><circle cx="106" cy="104" r="2" fill="#50df8e" opacity=".2"/></svg>

<svg xmlns="http://www.w3.org/2000/svg" viewBox="0 0 120 120" fill="none">
  <defs>
    <linearGradient id="com-bg" x1="0" y1="0" x2="120" y2="120" gradientUnits="userSpaceOnUse">
      <stop offset="0%" stop-color="#23c88a" stop-opacity="0.12"/>
      <stop offset="100%" stop-color="#50df8e" stop-opacity="0.06"/>
    </linearGradient>
    <linearGradient id="com-icon" x1="0" y1="0" x2="120" y2="120" gradientUnits="userSpaceOnUse">
      <stop offset="0%" stop-color="#50df8e"/>
      <stop offset="100%" stop-color="#23c88a"/>
    </linearGradient>
  </defs>
  <rect width="120" height="120" rx="20" fill="url(#com-bg)"/>
  <!-- Connection lines -->
  <line x1="36" y1="52" x2="60" y2="36" stroke="#7feca2" stroke-width="1.5" opacity="0.35"/>
  <line x1="84" y1="52" x2="60" y2="36" stroke="#7feca2" stroke-width="1.5" opacity="0.35"/>
  <line x1="36" y1="52" x2="84" y2="52" stroke="#7feca2" stroke-width="1" opacity="0.2"/>
  <!-- Center person (top) -->
  <circle cx="60" cy="32" r="9" fill="url(#com-icon)" opacity="0.85"/>
  <circle cx="60" cy="27" r="4" fill="#fff" opacity="0.35"/>
  <path d="M52 37 Q52 32 60 32 Q68 32 68 37" fill="#fff" opacity="0.2" stroke="none"/>
  <!-- Left person -->
  <circle cx="36" cy="58" r="8" fill="#23c88a" opacity="0.65"/>
  <circle cx="36" cy="53" r="3.5" fill="#fff" opacity="0.3"/>
  <path d="M29 63 Q29 58 36 58 Q43 58 43 63" fill="#fff" opacity="0.18" stroke="none"/>
  <!-- Right person -->
  <circle cx="84" cy="58" r="8" fill="#50df8e" opacity="0.65"/>
  <circle cx="84" cy="53" r="3.5" fill="#fff" opacity="0.3"/>
  <path d="M77 63 Q77 58 84 58 Q91 58 91 63" fill="#fff" opacity="0.18" stroke="none"/>
  <!-- Code heart -->
  <path d="M54 86 C54 80 60 78 60 83 C60 78 66 80 66 86 C66 92 60 97 60 97 C60 97 54 92 54 86Z" fill="url(#com-icon)" opacity="0.55"/>
  <!-- Code brackets -->
  <path d="M44 82 L38 90 L44 98" fill="none" stroke="#7feca2" stroke-width="2" stroke-linecap="round" stroke-linejoin="round" opacity="0.4"/>
  <path d="M76 82 L82 90 L76 98" fill="none" stroke="#7feca2" stroke-width="2" stroke-linecap="round" stroke-linejoin="round" opacity="0.4"/>
  <!-- Particles -->
  <circle cx="18" cy="22" r="2" fill="#50df8e" opacity="0.3"/>
  <circle cx="102" cy="20" r="1.5" fill="#7feca2" opacity="0.3"/>
  <circle cx="14" cy="102" r="1.5" fill="#5ae39c" opacity="0.2"/>
  <circle cx="106" cy="104" r="2" fill="#50df8e" opacity="0.2"/>
</svg>
